X:148
T:Michael Turner's Waltz
M:3/4
L:1/8
K:G
|:GA|B2B2cA|d2d2gf|e2ef ge|d2d2GA|
|B2B2cA|d2d2cA|G4F2|1 G4 GA:|2 G4 AB|
|:c2cd cB|A2A2Bc|d2de dc|B2B2gf|
|e2ef ge|d2d2GA|B2Bc A2|1 G4 AB:|2 G4 GA|
